Faba/32x32/categories/applications-internet.svg

<?xml version="1.0" encoding="UTF-8" standalone="no"?>
<!-- Created with Inkscape (http://www.inkscape.org/) -->

<svg
   xmlns:dc="http://purl.org/dc/elements/1.1/"
   xmlns:cc="http://creativecommons.org/ns#"
   xmlns:rdf="http://www.w3.org/1999/02/22-rdf-syntax-ns#"
   xmlns:svg="http://www.w3.org/2000/svg"
   xmlns="http://www.w3.org/2000/svg"
   xmlns:xlink="http://www.w3.org/1999/xlink"
   xmlns:sodipodi="http://sodipodi.sourceforge.net/DTD/sodipodi-0.dtd"
   xmlns:inkscape="http://www.inkscape.org/namespaces/inkscape"
   version="1.1"
   width="32"
   height="32"
   id="svg4103"
   inkscape:version="0.48.4 r9939"
   sodipodi:docname="preferences-desktop-online-accounts.svg">
  <sodipodi:namedview
     pagecolor="#ffffff"
     bordercolor="#666666"
     borderopacity="1"
     objecttolerance="10"
     gridtolerance="10"
     guidetolerance="10"
     inkscape:pageopacity="0"
     inkscape:pageshadow="2"
     inkscape:window-width="1364"
     inkscape:window-height="700"
     id="namedview35"
     showgrid="false"
     inkscape:zoom="1"
     inkscape:cx="36.183866"
     inkscape:cy="-13.526055"
     inkscape:window-x="0"
     inkscape:window-y="28"
     inkscape:window-maximized="1"
     inkscape:current-layer="layer1">
    <inkscape:grid
       type="xygrid"
       id="grid3854" />
  </sodipodi:namedview>
  <defs
     id="defs4105">
    <linearGradient
       inkscape:collect="always"
       id="linearGradient4139">
      <stop
         style="stop-color:#000000;stop-opacity:1;"
         offset="0"
         id="stop4141" />
      <stop
         style="stop-color:#000000;stop-opacity:0;"
         offset="1"
         id="stop4143" />
    </linearGradient>
    <linearGradient
       inkscape:collect="always"
       id="linearGradient4027">
      <stop
         style="stop-color:#000000;stop-opacity:1;"
         offset="0"
         id="stop4029" />
      <stop
         style="stop-color:#000000;stop-opacity:0;"
         offset="1"
         id="stop4031" />
    </linearGradient>
    <linearGradient
       inkscape:collect="always"
       id="linearGradient4017">
      <stop
         style="stop-color:#ffffff;stop-opacity:1;"
         offset="0"
         id="stop4019" />
      <stop
         style="stop-color:#ffffff;stop-opacity:0;"
         offset="1"
         id="stop4021" />
    </linearGradient>
    <linearGradient
       x1="-21.666521"
       y1="29.19919"
       x2="-21.666521"
       y2="-5.7992778"
       id="linearGradient3054-2"
       xlink:href="#linearGradient3707-319-631-407-324-3-8-9-5-7-5-1"
       gradientUnits="userSpaceOnUse"
       gradientTransform="matrix(0.66665918,0,0,0.66669583,22.712231,0.1996879)" />
    <linearGradient
       id="linearGradient3707-319-631-407-324-3-8-9-5-7-5-1">
      <stop
         id="stop3760-7-3-2-1-3-9-1"
         style="stop-color:#185f9a;stop-opacity:1"
         offset="0" />
      <stop
         id="stop3762-8-4-4-7-5-5-8"
         style="stop-color:#599ec9;stop-opacity:1"
         offset="1" />
    </linearGradient>
    <linearGradient
       x1="71.204407"
       y1="6.2375584"
       x2="71.204407"
       y2="44.340794"
       id="linearGradient3050"
       xlink:href="#linearGradient4010"
       gradientUnits="userSpaceOnUse"
       gradientTransform="matrix(0.64224154,0,0,0.73432599,-29.943595,-2.6858196)" />
    <linearGradient
       id="linearGradient4010">
      <stop
         id="stop4012"
         style="stop-color:#ffffff;stop-opacity:1"
         offset="0" />
      <stop
         id="stop4014"
         style="stop-color:#ffffff;stop-opacity:0.23529412"
         offset="0.32362887" />
      <stop
         id="stop4016"
         style="stop-color:#ffffff;stop-opacity:0.15686275"
         offset="0.76134068" />
      <stop
         id="stop4018"
         style="stop-color:#ffffff;stop-opacity:0.39215687"
         offset="1" />
    </linearGradient>
    <radialGradient
       cx="3.9722471"
       cy="8.4497671"
       r="19.99999"
       fx="3.9722471"
       fy="8.4497671"
       id="radialGradient3057"
       xlink:href="#linearGradient2867-449-88-871-390-598-476-591-434-148-57-177-3-8-3"
       gradientUnits="userSpaceOnUse"
       gradientTransform="matrix(0,1.7715455,-1.6761799,-4.8218737e-8,30.163407,-9.650088)" />
    <linearGradient
       id="linearGradient2867-449-88-871-390-598-476-591-434-148-57-177-3-8-3">
      <stop
         id="stop3750-8-9-1"
         style="stop-color:#90dbec;stop-opacity:1"
         offset="0" />
      <stop
         id="stop3752-3-2-8"
         style="stop-color:#42baea;stop-opacity:1"
         offset="0.26238" />
      <stop
         id="stop3754-7-2-1"
         style="stop-color:#3689e6;stop-opacity:1"
         offset="0.704952" />
      <stop
         id="stop3756-9-3-3"
         style="stop-color:#2b63a0;stop-opacity:1"
         offset="1" />
    </linearGradient>
    <radialGradient
       cx="27"
       cy="45.047001"
       r="17.625"
       id="radialGradient3904"
       gradientUnits="userSpaceOnUse"
       gradientTransform="matrix(0.91545,0,6.5816e-6,0.20922,-0.71745,35.213)">
      <stop
         id="stop8694"
         style="stop-color:#000000;stop-opacity:1"
         offset="0" />
      <stop
         id="stop8696"
         style="stop-color:#000000;stop-opacity:0"
         offset="1" />
    </radialGradient>
    <radialGradient
       cx="27"
       cy="45.047001"
       r="17.625"
       id="radialGradient4099"
       xlink:href="#radialGradient3904"
       gradientUnits="userSpaceOnUse"
       gradientTransform="matrix(0.50858335,0,3.6564445e-6,0.17021288,2.2680833,21.394403)" />
    <linearGradient
       x1="-21.666521"
       y1="29.19919"
       x2="-21.666521"
       y2="-5.7992778"
       id="linearGradient4101"
       xlink:href="#linearGradient3707-319-631-407-324-3-8-9-5-7-5-1"
       gradientUnits="userSpaceOnUse"
       gradientTransform="matrix(0.66665918,0,0,0.66669583,22.712231,0.1996879)" />
    <linearGradient
       inkscape:collect="always"
       xlink:href="#outerBackgroundGradient-1"
       id="linearGradient5576"
       gradientUnits="userSpaceOnUse"
       gradientTransform="matrix(0,-1,1,0,-12,300)"
       x1="35"
       y1="156"
       x2="253"
       y2="156" />
    <linearGradient
       id="outerBackgroundGradient-1">
      <stop
         style="stop-color:#32369a;stop-opacity:1;"
         offset="0"
         id="stop3864-8-6-43" />
      <stop
         style="stop-color:#3c41be;stop-opacity:1;"
         offset="1"
         id="stop3866-9-1-4" />
    </linearGradient>
    <radialGradient
       r="20.203051"
       fy="38.908627"
       fx="24.849752"
       cy="38.908627"
       cx="24.849752"
       gradientTransform="matrix(1.00851,0,0,0.373148,-0.211403,24.39)"
       gradientUnits="userSpaceOnUse"
       id="radialGradient3972"
       xlink:href="#linearGradient26121-3-8-2"
       inkscape:collect="always" />
    <linearGradient
       inkscape:collect="always"
       id="linearGradient26121-3-8-2">
      <stop
         style="stop-color: rgb(0, 0, 0); stop-opacity: 1;"
         offset="0"
         id="stop26123-4-7-8" />
      <stop
         style="stop-color: rgb(0, 0, 0); stop-opacity: 0;"
         offset="1"
         id="stop26125-3-9-9" />
    </linearGradient>
    <linearGradient
       inkscape:collect="always"
       xlink:href="#linearGradient3847"
       id="linearGradient3853"
       x1="296"
       y1="243"
       x2="328"
       y2="243"
       gradientUnits="userSpaceOnUse"
       gradientTransform="matrix(0,1,-1,0,555,-69)" />
    <linearGradient
       id="linearGradient3847">
      <stop
         style="stop-color:#ffffff;stop-opacity:1;"
         offset="0"
         id="stop3849" />
      <stop
         style="stop-color:#e8e8e8;stop-opacity:1;"
         offset="1"
         id="stop3851" />
    </linearGradient>
    <linearGradient
       inkscape:collect="always"
       xlink:href="#linearGradient3847"
       id="linearGradient3984"
       gradientUnits="userSpaceOnUse"
       gradientTransform="matrix(0,1,-1,0,259,-296)"
       x1="296"
       y1="243"
       x2="328"
       y2="243" />
    <linearGradient
       inkscape:collect="always"
       xlink:href="#linearGradient4017"
       id="linearGradient4023"
       x1="17"
       y1="0"
       x2="17"
       y2="32"
       gradientUnits="userSpaceOnUse" />
    <radialGradient
       inkscape:collect="always"
       xlink:href="#linearGradient4027"
       id="radialGradient4033"
       cx="16"
       cy="27.5"
       fx="16"
       fy="27.5"
       r="14"
       gradientTransform="matrix(1,0,0,0.10714286,0,24.553571)"
       gradientUnits="userSpaceOnUse" />
    <radialGradient
       inkscape:collect="always"
       xlink:href="#linearGradient4139"
       id="radialGradient4145"
       cx="15"
       cy="23.5"
       fx="15"
       fy="23.5"
       r="12"
       gradientTransform="matrix(1,0,0,0.125,0,24.0625)"
       gradientUnits="userSpaceOnUse" />
  </defs>
  <metadata
     id="metadata4108">
    <rdf:RDF>
      <cc:Work
         rdf:about="">
        <dc:format>image/svg+xml</dc:format>
        <dc:type
           rdf:resource="http://purl.org/dc/dcmitype/StillImage" />
        <dc:title />
      </cc:Work>
    </rdf:RDF>
  </metadata>
  <g
     inkscape:groupmode="layer"
     id="layer1"
     inkscape:label="Background">
    <path
       inkscape:connector-curvature="0"
       style="opacity:0.4;color:#000000;fill:#000000;fill-opacity:1;fill-rule:nonzero;stroke:none;stroke-width:4;marker:none;visibility:visible;display:inline;overflow:visible;enable-background:accumulate"
       d="M 18,5 C 15.802705,5 13.823606,5.8489365 12.3125,7.21875 L 12.09375,7.40625 11.8125,7.3125 C 11.241013,7.1138478 10.627987,7 10,7 6.9565098,7 4.5,9.4565098 4.5,12.5 c 0,0.313639 0.040591,0.627468 0.09375,0.9375 l 0.0625,0.34375 -0.3125,0.1875 C 2.0556092,15.253988 0.5,17.68668 0.5,20.5 0.5,24.64806 3.8519398,28 8,28 l 17,0 c 3.595769,0 6.5,-2.904231 6.5,-6.5 0,-2.982325 -1.987686,-5.479974 -4.71875,-6.25 l -0.4375,-0.09375 0.0625,-0.4375 C 26.46401,14.317574 26.5,13.914114 26.5,13.5 26.5,8.7996604 22.70034,5 18,5 z"
       id="path4149" />
    <path
       id="path4147"
       d="m 18,5.5 c -2.197295,0 -4.176394,0.8489365 -5.6875,2.21875 L 12.09375,7.90625 11.8125,7.8125 C 11.241013,7.6138478 10.627987,7.5 10,7.5 6.9565098,7.5 4.5,9.9565098 4.5,13 c 0,0.313639 0.040591,0.627468 0.09375,0.9375 l 0.0625,0.34375 -0.3125,0.1875 C 2.0556092,15.753988 0.5,18.18668 0.5,21 c 0,4.14806 3.3519398,7.5 7.5,7.5 l 17,0 c 3.595769,0 6.5,-2.904231 6.5,-6.5 0,-2.982325 -1.987686,-5.479974 -4.71875,-6.25 l -0.4375,-0.09375 0.0625,-0.4375 C 26.46401,14.817574 26.5,14.414114 26.5,14 26.5,9.2996604 22.70034,5.5 18,5.5 z"
       style="color:#000000;fill:#000000;fill-opacity:1;fill-rule:nonzero;stroke:none;stroke-width:4;marker:none;visibility:visible;display:inline;overflow:visible;enable-background:accumulate;opacity:0.2"
       inkscape:connector-curvature="0" />
    <path
       style="color:#000000;fill:url(#linearGradient3984);fill-opacity:1;fill-rule:nonzero;stroke:none;stroke-width:4;marker:none;visibility:visible;display:inline;overflow:visible;enable-background:accumulate"
       d="M 18 4.5 C 15.802705 4.5 13.823606 5.3489365 12.3125 6.71875 L 12.09375 6.90625 L 11.8125 6.8125 C 11.241013 6.6138478 10.627987 6.5 10 6.5 C 6.9565098 6.5 4.5 8.9565098 4.5 12 C 4.5 12.313639 4.5405905 12.627468 4.59375 12.9375 L 4.65625 13.28125 L 4.34375 13.46875 C 2.0556092 14.753988 0.5 17.18668 0.5 20 C 0.5 24.14806 3.8519398 27.5 8 27.5 L 25 27.5 C 28.595769 27.5 31.5 24.595769 31.5 21 C 31.5 18.017675 29.512314 15.520026 26.78125 14.75 L 26.34375 14.65625 L 26.40625 14.21875 C 26.46401 13.817574 26.5 13.414114 26.5 13 C 26.5 8.2996604 22.70034 4.5 18 4.5 z "
       id="path3079" />
    <path
       id="path3993"
       d="M 18 4.5 C 15.802705 4.5 13.823606 5.3489365 12.3125 6.71875 L 12.09375 6.90625 L 11.8125 6.8125 C 11.241013 6.6138478 10.627987 6.5 10 6.5 C 6.9565098 6.5 4.5 8.9565098 4.5 12 C 4.5 12.313639 4.5405905 12.627468 4.59375 12.9375 L 4.65625 13.28125 L 4.34375 13.46875 C 2.0556092 14.753988 0.5 17.18668 0.5 20 C 0.5 24.14806 3.8519398 27.5 8 27.5 L 25 27.5 C 28.595769 27.5 31.5 24.595769 31.5 21 C 31.5 18.017675 29.512314 15.520026 26.78125 14.75 L 26.34375 14.65625 L 26.40625 14.21875 C 26.46401 13.817574 26.5 13.414114 26.5 13 C 26.5 8.2996604 22.70034 4.5 18 4.5 z "
       style="color:#000000;fill:none;fill-opacity:1;fill-rule:nonzero;stroke:#000000;stroke-width:1;marker:none;visibility:visible;display:inline;overflow:visible;enable-background:accumulate;stroke-opacity:1;stroke-miterlimit:4;stroke-dasharray:none;opacity:0.41" />
    <path
       style="color:#000000;fill:url(#linearGradient4023);fill-opacity:1;fill-rule:nonzero;stroke:none;stroke-width:4;marker:none;visibility:visible;display:inline;overflow:visible;enable-background:accumulate"
       d="M 18 5 C 15.93149 5 14.082567 5.8007973 12.65625 7.09375 L 12.625 7.09375 L 12.40625 7.28125 L 12.21875 7.46875 L 11.9375 7.375 L 11.65625 7.28125 C 11.133546 7.099555 10.567557 7 10 7 C 7.2255551 7 5 9.2255551 5 12 C 5 12.2705 5.042924 12.547327 5.09375 12.84375 L 5.15625 13.1875 L 5.21875 13.53125 L 4.90625 13.71875 L 4.59375 13.90625 C 2.4561246 15.106944 1 17.370995 1 20 C 1 23.878702 4.1212978 27 8 27 L 25 27 C 28.326542 27 31 24.326542 31 21 C 31 18.25494 29.186462 15.973942 26.6875 15.25 L 26.25 15.15625 L 25.78125 15.0625 L 25.84375 14.59375 L 25.90625 14.15625 C 25.96145 13.772879 26 13.385145 26 13 C 26 8.5691204 22.43088 5 18 5 z M 18 6 C 21.893873 6 25 9.1061274 25 13 C 25 13.318417 24.95725 13.645764 24.90625 14 L 24.84375 14.4375 L 24.84375 14.46875 L 24.78125 14.9375 L 24.65625 15.84375 L 25.59375 16.03125 L 26.03125 16.125 L 26.0625 16.125 L 26.40625 16.21875 C 28.49018 16.822458 30 18.695377 30 21 C 30 23.790759 27.790759 26 25 26 L 8 26 C 4.6577827 26 2 23.342217 2 20 C 2 17.740241 3.2550441 15.814042 5.09375 14.78125 L 5.09375 14.75 L 5.40625 14.5625 L 5.71875 14.375 L 6.3125 14.03125 L 6.1875 13.34375 L 6.125 13 L 6.0625 12.6875 L 6.09375 12.6875 C 6.044601 12.400858 6 12.164711 6 12 C 6 9.76033 7.76033 8 10 8 C 10.450617 8 10.894255 8.073366 11.3125 8.21875 L 11.34375 8.21875 L 11.625 8.3125 L 11.90625 8.40625 L 12.5 8.625 L 12.9375 8.1875 L 13.03125 8.09375 L 13.125 8 L 13.28125 7.84375 L 13.3125 7.84375 C 14.57244 6.701618 16.189582 6 18 6 z "
       id="path3995" />
  </g>
  <g
     inkscape:groupmode="layer"
     id="layer2"
     inkscape:label="Symbol" />
</svg>

<svg xmlns="http://www.w3.org/2000/svg" viewBox="0 0 32 32"><defs><linearGradient id="0" gradientUnits="userSpaceOnUse" y1="0" x2="0" y2="32"><stop stop-color="#fff"/><stop offset="1" stop-color="#e8e8e8"/></linearGradient><linearGradient id="1" y1="0" x2="0" y2="32" gradientUnits="userSpaceOnUse"><stop stop-color="#fff"/><stop offset="1" stop-color="#fff" stop-opacity="0"/></linearGradient></defs><g color="#000"><path d="m18 5c-2.197 0-4.176.849-5.688 2.219l-.219.188-.281-.094c-.571-.199-1.185-.313-1.813-.313-3.043 0-5.5 2.457-5.5 5.5 0 .314.041.627.094.938l.063.344-.313.188c-2.288 1.285-3.844 3.718-3.844 6.531 0 4.148 3.352 7.5 7.5 7.5h17c3.596 0 6.5-2.904 6.5-6.5 0-2.982-1.988-5.48-4.719-6.25l-.438-.094.063-.438c.058-.401.094-.805.094-1.219 0-4.7-3.8-8.5-8.5-8.5" opacity=".4"/><path d="m18 5.5c-2.197 0-4.176.849-5.688 2.219l-.219.188-.281-.094c-.571-.199-1.185-.313-1.813-.313-3.043 0-5.5 2.457-5.5 5.5 0 .314.041.627.094.938l.063.344-.313.188c-2.288 1.285-3.844 3.718-3.844 6.531 0 4.148 3.352 7.5 7.5 7.5h17c3.596 0 6.5-2.904 6.5-6.5 0-2.982-1.988-5.48-4.719-6.25l-.438-.094.063-.438c.058-.401.094-.805.094-1.219 0-4.7-3.8-8.5-8.5-8.5" opacity=".2"/><path d="m18 4.5c-2.197 0-4.176.849-5.688 2.219l-.219.188-.281-.094c-.571-.199-1.185-.313-1.813-.313-3.043 0-5.5 2.457-5.5 5.5 0 .314.041.627.094.938l.063.344-.313.188c-2.288 1.285-3.844 3.718-3.844 6.531 0 4.148 3.352 7.5 7.5 7.5h17c3.596 0 6.5-2.904 6.5-6.5 0-2.982-1.988-5.48-4.719-6.25l-.438-.094.063-.438c.058-.401.094-.805.094-1.219 0-4.7-3.8-8.5-8.5-8.5" fill="url(#0)"/><path d="m18 4.5c-2.197 0-4.176.849-5.688 2.219l-.219.188-.281-.094c-.571-.199-1.185-.313-1.813-.313-3.043 0-5.5 2.457-5.5 5.5 0 .314.041.627.094.938l.063.344-.313.188c-2.288 1.285-3.844 3.718-3.844 6.531 0 4.148 3.352 7.5 7.5 7.5h17c3.596 0 6.5-2.904 6.5-6.5 0-2.982-1.988-5.48-4.719-6.25l-.438-.094.063-.438c.058-.401.094-.805.094-1.219 0-4.7-3.8-8.5-8.5-8.5z" opacity=".41" fill="none" stroke="#000"/><path d="m18 5c-2.069 0-3.917.801-5.344 2.094h-.031l-.219.188-.188.188-.281-.094-.281-.094c-.523-.182-1.089-.281-1.656-.281-2.774 0-5 2.226-5 5 0 .271.043.547.094.844l.063.344.063.344-.313.188-.313.188c-2.138 1.201-3.594 3.465-3.594 6.094 0 3.879 3.121 7 7 7h17c3.327 0 6-2.673 6-6 0-2.745-1.814-5.03-4.313-5.75l-.438-.094-.469-.094.063-.469.063-.438c.055-.383.094-.771.094-1.156 0-4.431-3.569-8-8-8m0 1c3.894 0 7 3.106 7 7 0 .318-.043.646-.094 1l-.063.438v.031l-.063.469-.125.906.938.188.438.094h.031l.344.094c2.084.604 3.594 2.477 3.594 4.781 0 2.791-2.209 5-5 5h-17c-3.342 0-6-2.658-6-6 0-2.26 1.255-4.186 3.094-5.219v-.031l.313-.188.313-.188.594-.344-.125-.688-.063-.344-.063-.313h.031c-.049-.287-.094-.523-.094-.688 0-2.24 1.76-4 4-4 .451 0 .894.073 1.313.219h.031l.281.094.281.094.594.219.438-.438.094-.094.094-.094.156-.156h.031c1.26-1.142 2.877-1.844 4.688-1.844" fill="url(#1)"/></g></svg>
